bestshop/images/icons/icon-res-guide-video-02.svg

<svg xmlns="http://www.w3.org/2000/svg" width="80" height="80" viewBox="0 0 80 80">
  <g id="icon_step04" transform="translate(-1249 -370.4)">
    <g id="그룹_1210" data-name="그룹 1210">
      <g id="사각형_290" data-name="사각형 290" transform="translate(1284 385)" fill="#fff" stroke="#000" stroke-width="1.5">
        <path d="M10,0h6A10,10,0,0,1,26,10V37a0,0,0,0,1,0,0H0a0,0,0,0,1,0,0V10A10,10,0,0,1,10,0Z" stroke="none"/>
        <path d="M10,.75h6A9.25,9.25,0,0,1,25.25,10V36.25a0,0,0,0,1,0,0H.75a0,0,0,0,1,0,0V10A9.25,9.25,0,0,1,10,.75Z" fill="none"/>
      </g>
      <g id="패스_146" data-name="패스 146" transform="translate(1278.333 416)" fill="#fff">
        <path d="M 36.73341369628906 21.24999618530273 L 1.933333992958069 21.24999618530273 C 1.28084397315979 21.24999618530273 0.7500040531158447 20.68924713134766 0.7500040531158447 19.99999618530273 L 0.7500040531158447 9.999997138977051 C 0.7500040531158447 7.696197032928467 1.65463399887085 5.78227710723877 3.515594005584717 4.148847103118896 C 4.997992992401123 2.847699642181396 7.02529764175415 1.756316900253296 9.894035339355469 0.7153385877609253 L 19.14159774780273 -1.822679758071899 L 28.54483222961426 0.7191810607910156 C 31.72304725646973 1.748029828071594 33.89706420898438 2.850990772247314 35.38613510131836 4.18977689743042 C 37.08897399902344 5.720777034759521 37.91674423217773 7.621316909790039 37.91674423217773 9.999997138977051 L 37.91674423217773 19.99999618530273 C 37.91674423217773 20.68924713134766 37.38590240478516 21.24999618530273 36.73341369628906 21.24999618530273 Z" stroke="none"/>
        <path d="M 19.14307022094727 -1.045354843139648 L 10.12179374694824 1.430559158325195 C 4.159954071044922 3.599587440490723 1.500003814697266 6.244084358215332 1.500003814697266 9.999997138977051 L 1.500003814697266 19.99999618530273 C 1.500003814697266 20.27569770812988 1.694393157958984 20.49999618530273 1.933334350585938 20.49999618530273 L 36.73341369628906 20.49999618530273 C 36.97235488891602 20.49999618530273 37.16674423217773 20.27569770812988 37.16674423217773 19.99999618530273 L 37.16674423217773 9.999997138977051 C 37.16674423217773 7.816316604614258 36.44160461425781 6.147296905517578 34.88469314575195 4.747507095336914 C 33.47927474975586 3.483919143676758 31.39646148681641 2.432073593139648 28.33154678344727 1.438451766967773 L 19.14307022094727 -1.045354843139648 M 19.14008331298828 -2.600002288818359 L 28.75839424133301 -3.814697265625e-06 C 34.55840301513672 1.874996185302734 38.66674423217773 4.477147102355957 38.66674423217773 9.999997138977051 L 38.66674423217773 19.99999618530273 C 38.66674423217773 21.10456657409668 37.80116271972656 21.99999618530273 36.73341369628906 21.99999618530273 L 1.933334350585938 21.99999618530273 C 0.8655853271484375 21.99999618530273 3.814697265625e-06 21.10456657409668 3.814697265625e-06 19.99999618530273 L 3.814697265625e-06 9.999997138977051 C 3.814697265625e-06 4.477147102355957 4.833343505859375 1.749996185302734 9.666683197021484 -3.814697265625e-06 L 19.14008331298828 -2.600002288818359 Z" stroke="none" fill="#000"/>
      </g>
      <path id="패스_147" data-name="패스 147" d="M3242.875,419.625s-1.875,5.75-3.75,5.875-4.5-9.25-4.5-9.25l3.5-1" transform="translate(-1945.875)" fill="#fff" stroke="#000" stroke-width="1.5"/>
      <g id="사각형_288" data-name="사각형 288" transform="translate(1308 431)" fill="#000" stroke="#000" stroke-width="1.5">
        <rect width="1.5" height="7" rx="0.75" stroke="none"/>
        <rect x="0.75" y="0.75" height="5.5" fill="none"/>
      </g>
      <path id="패스_148" data-name="패스 148" d="M3234.625,419.625s1.875,5.75,3.75,5.875,4.5-9.25,4.5-9.25l-3.5-1" transform="translate(-1937.625)" fill="#fff" stroke="#000" stroke-width="1.5"/>
      <g id="합치기_10" data-name="합치기 10" transform="translate(3282 410)" fill="#fff">
        <path d="M -1985.00048828125 10.24980068206787 C -1987.343627929688 10.24980068206787 -1989.25 8.343480110168457 -1989.25 6.000300407409668 L -1989.25 0.7500003576278687 L -1980.75 0.7500003576278687 L -1980.75 6.000300407409668 C -1980.75 8.343480110168457 -1982.65673828125 10.24980068206787 -1985.00048828125 10.24980068206787 Z" stroke="none"/>
        <path d="M -1985.00048828125 9.499800682067871 C -1983.0703125 9.499800682067871 -1981.5 7.929930210113525 -1981.5 6.000300407409668 L -1981.5 1.500000357627869 L -1988.5 1.500000357627869 L -1988.5 6.000300407409668 C -1988.5 7.929930210113525 -1986.93017578125 9.499800682067871 -1985.00048828125 9.499800682067871 M -1985.00048828125 10.99980068206787 C -1987.761596679688 10.99980068206787 -1990 8.761500358581543 -1990 6.000300407409668 L -1990 3.410339388665307e-07 L -1980 3.410339388665307e-07 L -1980 6.000300407409668 C -1980 8.761500358581543 -1982.238403320312 10.99980068206787 -1985.00048828125 10.99980068206787 Z" stroke="none" fill="#000"/>
      </g>
      <g id="타원_45" data-name="타원 45" transform="translate(1287 392)" fill="#fff" stroke="#000" stroke-width="1.5">
        <circle cx="10" cy="10" r="10" stroke="none"/>
        <circle cx="10" cy="10" r="9.25" fill="none"/>
      </g>
      <path id="패스_149" data-name="패스 149" d="M3249.493,391.279s-1.407,3.186-4.019,3.56-5.024-.562-6.833,0-5.627,3.56-5.627,3.56l-1.608,2.959s-.6-11.805,1.608-14.8,5.426-5.583,8.239-5.77,5.627-.75,7.235,1.124S3249.493,391.279,3249.493,391.279Z" transform="translate(-1946.949 2.842)" fill="#fff" stroke="#000" stroke-width="1.5"/>
      <g id="그룹_390" data-name="그룹 390" transform="translate(-1.25 -5.35)">
        <path id="합치기_11" data-name="합치기 11" d="M14.044,20H3.251A1.25,1.25,0,0,1,2,18.751V2.25A1.25,1.25,0,0,1,3.251,1h20.5A1.25,1.25,0,0,1,25,2.25v16.5A1.25,1.25,0,0,1,23.75,20H17.77v3.38Z" transform="translate(1259.25 387.75)" fill="#fff" stroke="#000" stroke-linecap="round" stroke-linejoin="round" stroke-width="1.5"/>
      </g>
      <g id="사각형_291" data-name="사각형 291" transform="translate(1283 396)" fill="#fff" stroke="#000" stroke-width="1.5">
        <path d="M3,0H5A1,1,0,0,1,6,1V9a1,1,0,0,1-1,1H3A3,3,0,0,1,0,7V3A3,3,0,0,1,3,0Z" stroke="none"/>
        <path d="M3,.75H5A.25.25,0,0,1,5.25,1V9A.25.25,0,0,1,5,9.25H3A2.25,2.25,0,0,1,.75,7V3A2.25,2.25,0,0,1,3,.75Z" fill="none"/>
      </g>
      <g id="사각형_292" data-name="사각형 292" transform="translate(1311 406) rotate(180)" fill="#fff" stroke="#000" stroke-width="1.5">
        <path d="M3,0H5A1,1,0,0,1,6,1V9a1,1,0,0,1-1,1H3A3,3,0,0,1,0,7V3A3,3,0,0,1,3,0Z" stroke="none"/>
        <path d="M3,.75H5A.25.25,0,0,1,5.25,1V9A.25.25,0,0,1,5,9.25H3A2.25,2.25,0,0,1,.75,7V3A2.25,2.25,0,0,1,3,.75Z" fill="none"/>
      </g>
      <path id="패스_150" data-name="패스 150" d="M3243.75,406h5.509a1.7,1.7,0,0,0,1.052-.54,1.6,1.6,0,0,0,.351-1.129v-1.08" transform="translate(-1945 2)" fill="none" stroke="#000" stroke-linecap="round" stroke-linejoin="round" stroke-width="1.5"/>
      <g id="타원_46" data-name="타원 46" transform="translate(1296 406)" stroke="#000" stroke-width="1.5">
        <circle cx="2" cy="2" r="2" stroke="none"/>
        <circle cx="2" cy="2" r="1.25" fill="none"/>
      </g>
      <g id="사각형_293" data-name="사각형 293" transform="translate(1260.001 417)" fill="#fff" stroke="#000" stroke-width="1.5">
        <path d="M2,0H25a2,2,0,0,1,2,2V19a0,0,0,0,1,0,0H0a0,0,0,0,1,0,0V2A2,2,0,0,1,2,0Z" stroke="none"/>
        <path d="M2,.75H25A1.25,1.25,0,0,1,26.249,2V18.25a0,0,0,0,1,0,0H.75a0,0,0,0,1,0,0V2A1.25,1.25,0,0,1,2,.75Z" fill="none"/>
      </g>
      <g id="사각형_294" data-name="사각형 294" transform="translate(1260.001 432)" fill="#fff" stroke="#000" stroke-width="1.5">
        <path d="M0,0H29a1,1,0,0,1,1,1V4a2,2,0,0,1-2,2H2A2,2,0,0,1,0,4V0A0,0,0,0,1,0,0Z" stroke="none"/>
        <path d="M.75.75H29a.25.25,0,0,1,.25.25V4A1.25,1.25,0,0,1,28,5.25H2A1.25,1.25,0,0,1,.75,4V.75A0,0,0,0,1,.75.75Z" fill="none"/>
      </g>
      <g id="그룹_391" data-name="그룹 391" transform="translate(-27 26.301)">
        <g id="타원_47" data-name="타원 47" transform="translate(1292 360)" fill="#fff" stroke="#000" stroke-width="1.5">
          <circle cx="6.5" cy="6.5" r="6.5" stroke="none"/>
          <circle cx="6.5" cy="6.5" r="5.75" fill="none"/>
        </g>
        <g id="타원_48" data-name="타원 48" transform="translate(1295.385 364.231)" stroke="#000" stroke-width="1">
          <circle cx="1" cy="1" r="1" stroke="none"/>
          <circle cx="1" cy="1" r="0.5" fill="none"/>
        </g>
        <g id="타원_49" data-name="타원 49" transform="translate(1299.615 364.231)" stroke="#000" stroke-width="1">
          <circle cx="1" cy="1" r="1" stroke="none"/>
          <circle cx="1" cy="1" r="0.5" fill="none"/>
        </g>
        <path id="패스_152" data-name="패스 152" d="M3291,396.4a2.49,2.49,0,0,0,2.227,1.138,2.768,2.768,0,0,0,2.327-1.138" transform="translate(-1994.858 -28.119)" fill="none" stroke="#000" stroke-linecap="round" stroke-linejoin="round" stroke-width="1.5"/>
      </g>
    </g>
    <rect id="사각형_813" data-name="사각형 813" width="80" height="80" transform="translate(1249 370.4)" fill="none"/>
  </g>
</svg>

<svg xmlns="http://www.w3.org/2000/svg" width="80" height="80" viewBox="0 0 80 80">
    <path data-name="사각형 813" style="fill:none" d="M0 0h80v80H0z"/>
    <g data-name="그룹 393">
        <g data-name="사각형 290" style="stroke-width:1.5px;stroke:#000;fill:#aa593d">
            <path d="M10 0h6a10 10 0 0 1 10 10v27H0V10A10 10 0 0 1 10 0z" style="stroke:none" transform="translate(37 13.6)"/>
            <path d="M10 .75h6A9.25 9.25 0 0 1 25.25 10v26.25H.75V10A9.25 9.25 0 0 1 10 .75z" style="fill:none" transform="translate(37 13.6)"/>
        </g>
        <g data-name="패스 146" style="fill:#ddd">
            <path d="M36.733 23.25h-34.8C1.281 23.25.75 22.69.75 22V10c0-2.304.905-4.218 2.766-5.851C4.998 2.848 7.026 1.756 9.894.715l9.248-2.538L28.545.72c3.178 1.029 5.352 2.132 6.841 3.47 1.703 1.532 2.53 3.432 2.53 5.811v12c0 .69-.53 1.25-1.183 1.25z" style="stroke:none" transform="translate(31.333 44.6)"/>
            <path d="M19.143-1.045 10.122 1.43C4.16 3.6 1.5 6.244 1.5 10v12c0 .276.194.5.433.5h34.8c.24 0 .434-.224.434-.5V10c0-2.184-.725-3.853-2.282-5.252-1.406-1.264-3.489-2.316-6.553-3.31l-9.189-2.483M19.14-2.6 28.758 0c5.8 1.875 9.909 4.477 9.909 10v12c0 1.105-.866 2-1.934 2h-34.8C.866 24 0 23.105 0 22V10C0 4.477 4.833 1.75 9.667 0l9.473-2.6z" style="fill:#000;stroke:none" transform="translate(31.333 44.6)"/>
        </g>
        <path data-name="패스 147" d="M3242.875 419.625s-1.875 5.75-3.75 5.875-4.5-9.25-4.5-9.25l3.5-1" transform="translate(-3192.875 -371.4)" style="fill:#5b7d83;stroke-width:1.5px;stroke:#000"/>
        <g data-name="사각형 288" transform="translate(61 61.6)" style="fill:#000;stroke-width:1.5px;stroke:#000">
            <rect width="1.5" height="7" rx=".75" style="stroke:none"/>
            <rect x=".75" y=".75" height="5.5" style="fill:none"/>
        </g>
        <path data-name="패스 148" d="M3234.625 419.625s1.875 5.75 3.75 5.875 4.5-9.25 4.5-9.25l-3.5-1" transform="translate(-3184.625 -371.4)" style="fill:#5b7d83;stroke-width:1.5px;stroke:#000"/>
        <g data-name="합치기 10" style="fill:#edcec9">
            <path d="M-1985 10.25a4.254 4.254 0 0 1-4.25-4.25V.75h8.5V6a4.255 4.255 0 0 1-4.25 4.25z" style="stroke:none" transform="translate(2035 38.6)"/>
            <path d="M-1985 9.5c1.93 0 3.5-1.57 3.5-3.5V1.5h-7V6c0 1.93 1.57 3.5 3.5 3.5m0 1.5a5 5 0 0 1-5-5V0h10v6a5 5 0 0 1-5 5z" style="fill:#000;stroke:none" transform="translate(2035 38.6)"/>
        </g>
        <g data-name="타원 45" transform="translate(40 20.6)" style="fill:#edcec9;stroke-width:1.5px;stroke:#000">
            <circle cx="10" cy="10" r="10" style="stroke:none"/>
            <circle cx="10" cy="10" r="9.25" style="fill:none"/>
        </g>
        <path data-name="패스 149" d="M3249.493 391.279s-1.407 3.186-4.019 3.56-5.024-.562-6.833 0-5.627 3.56-5.627 3.56l-1.608 2.959s-.6-11.805 1.608-14.8 5.426-5.583 8.239-5.77 5.627-.75 7.235 1.124 1.005 9.367 1.005 9.367z" transform="translate(-3193.949 -368.559)" style="stroke-width:1.5px;stroke:#000;fill:#aa593d"/>
        <g data-name="그룹 390">
            <path data-name="합치기 11" d="M14.044 20H1.25A1.25 1.25 0 0 1 0 18.751V1.25A1.25 1.25 0 0 1 1.25 0h22.5A1.25 1.25 0 0 1 25 1.25v17.5A1.25 1.25 0 0 1 23.75 20h-5.98v3.38z" transform="translate(11 12)" style="stroke-linecap:round;stroke-linejoin:round;fill:#f4fbff;stroke-width:1.5px;stroke:#000"/>
        </g>
        <g data-name="사각형 291" style="fill:#fff;stroke-width:1.5px;stroke:#000">
            <path d="M3 0h2a1 1 0 0 1 1 1v8a1 1 0 0 1-1 1H3a3 3 0 0 1-3-3V3a3 3 0 0 1 3-3z" style="stroke:none" transform="translate(36 24.6)"/>
            <path d="M3 .75h2a.25.25 0 0 1 .25.25v8a.25.25 0 0 1-.25.25H3A2.25 2.25 0 0 1 .75 7V3A2.25 2.25 0 0 1 3 .75z" style="fill:none" transform="translate(36 24.6)"/>
        </g>
        <g data-name="사각형 292" style="fill:#fff;stroke-width:1.5px;stroke:#000">
            <path d="M3 0h2a1 1 0 0 1 1 1v8a1 1 0 0 1-1 1H3a3 3 0 0 1-3-3V3a3 3 0 0 1 3-3z" style="stroke:none" transform="rotate(180 32 17.3)"/>
            <path d="M3 .75h2a.25.25 0 0 1 .25.25v8a.25.25 0 0 1-.25.25H3A2.25 2.25 0 0 1 .75 7V3A2.25 2.25 0 0 1 3 .75z" style="fill:none" transform="rotate(180 32 17.3)"/>
        </g>
        <path data-name="패스 150" d="M3243.75 406h5.509a1.7 1.7 0 0 0 1.052-.54 1.6 1.6 0 0 0 .351-1.129v-1.08" transform="translate(-3192 -369.4)" style="stroke-linecap:round;stroke-linejoin:round;stroke-width:1.5px;stroke:#000;fill:none"/>
        <g data-name="타원 46" transform="translate(49 34.6)" style="stroke-width:1.5px;stroke:#000">
            <circle cx="2" cy="2" r="2" style="stroke:none"/>
            <circle cx="2" cy="2" r="1.25" style="fill:none"/>
        </g>
        <g data-name="사각형 293" style="fill:#edcec9;stroke-width:1.5px;stroke:#000">
            <path d="M2 0h26a2 2 0 0 1 2 2v17H0V2a2 2 0 0 1 2-2z" style="stroke:none" transform="translate(10 45.6)"/>
            <path d="M2 .75h26A1.25 1.25 0 0 1 29.25 2v16.25H.75V2A1.25 1.25 0 0 1 2 .75z" style="fill:none" transform="translate(10 45.6)"/>
        </g>
        <g data-name="사각형 294" style="fill:#edcec9;stroke-width:1.5px;stroke:#000">
            <path d="M0 0h32a1 1 0 0 1 1 1v3a2 2 0 0 1-2 2H2a2 2 0 0 1-2-2V0z" style="stroke:none" transform="translate(10 62.6)"/>
            <path d="M.75.75H32a.25.25 0 0 1 .25.25v3A1.25 1.25 0 0 1 31 5.25H2A1.25 1.25 0 0 1 .75 4V.75z" style="fill:none" transform="translate(10 62.6)"/>
        </g>
        <g data-name="그룹 391">
            <g data-name="타원 47" transform="translate(17 15.6)" style="fill:#e1d0b6;stroke-width:1.5px;stroke:#000">
                <circle cx="6.5" cy="6.5" r="6.5" style="stroke:none"/>
                <circle cx="6.5" cy="6.5" r="5.75" style="fill:none"/>
            </g>
            <g data-name="타원 48" transform="translate(20.385 19.831)" style="stroke:#000">
                <circle cx="1" cy="1" r="1" style="stroke:none"/>
                <circle cx="1" cy="1" r=".5" style="fill:none"/>
            </g>
            <g data-name="타원 49" transform="translate(24.615 19.831)" style="stroke:#000">
                <circle cx="1" cy="1" r="1" style="stroke:none"/>
                <circle cx="1" cy="1" r=".5" style="fill:none"/>
            </g>
            <path data-name="패스 152" d="M3291 396.4a2.49 2.49 0 0 0 2.227 1.138 2.768 2.768 0 0 0 2.327-1.138" transform="translate(-3269.858 -372.519)" style="stroke-linecap:round;stroke-linejoin:round;stroke-width:1.5px;stroke:#000;fill:none"/>
        </g>
    </g>
</svg>
